src/assets/images/globe.svg

<?xml version="1.0" encoding="UTF-8"?>
<svg xmlns="http://www.w3.org/2000/svg" fill="none" height="100%" overflow="visible" preserveAspectRatio="none" style="display: block;" viewBox="0 0 64.3733 74.1033" width="100%">
<g id="Group">
<path d="M59.839 56.0582L59.1776 57.159L58.7997 57.7998L58.7839 57.8327L56.6581 61.3816L55.9022 62.4989L54.4377 63.6161L54.0755 64.0597L50.863 67.8387L49.0678 68.7752L48.5797 69.1367L45.5404 71.3547L45.32 71.519" id="Vector" stroke="#231f20" stroke-linecap="round" stroke-width="0.5"/>
<path d="M3.57357 41.3534L4.8806 35.8657L7.02224 30.3615L9.93549 24.8903L13.5101 19.6983L17.6517 15.0814L22.2499 11.4668L27.1473 9.16657L32.1865 8.41077L37.5721 11.3846L42.7844 14.5885L47.6661 17.7103L52.0911 20.717L55.902 23.7894L59.0042 27.1905L61.2875 31.0845L62.6891 35.5699" id="Vector_2" stroke="#231f20" stroke-linecap="round" stroke-width="0.5"/>
<path d="M16.2192 10.1205L21.2584 8.13241L26.644 7.57378L28.6124 7.86952L32.187 8.41171L32.25 8.54316L33.6358 12.7822L35.0215 17.2512L36.3286 21.4573L37.5254 25.3677L38.5489 29.1631L39.3678 33.1392L39.982 37.4932L40.3599 42.2415L40.4859 47.3513L40.3599 52.7076L39.982 58.0803L39.3678 63.2558L38.5489 67.8727L37.5254 71.5037L36.3286 73.6068L33.5885 73.7875L32.4232 73.7711" id="Vector_3" stroke="#231f20" stroke-linecap="round" stroke-width="0.5"/>
<path d="M5.92028 48.4183L6.32971 43.1278L7.51076 37.8373L9.44769 32.5468L12.0617 27.2562L15.3057 22.0478L19.0536 17.1352L23.2108 12.9455L27.6201 9.93879L32.1868 8.41077L37.226 11.8118L42.1234 15.2786L46.7216 18.5646L50.8632 21.7028L54.4378 24.9067L57.3511 28.4392L59.4927 32.4482L60.7997 37.0158L61.2406 42.0599" id="Vector_4" stroke="#231f20" stroke-linecap="round" stroke-width="0.5"/>
<path d="M63.6341 32.8435L63.7443 33.9936L64.1222 37.8218V39.1527L63.1616 40.5985L62.6892 46.0369L60.7995 47.4664L59.4925 53.0527L56.8627 54.3506L54.9258 59.7397L51.8236 60.8406L49.5559 65.671L46.2805 66.5419L44.0129 70.3701L40.8949 71.0109L38.958 73.2782L36.3282 73.6068L35.0212 73.8533" id="Vector_5" stroke="#231f20" stroke-linecap="round" stroke-width="0.5"/>
<path d="M55.9022 20.5207L56.6581 21.2765L57.6344 22.2952L59.0044 23.7246L59.8391 24.7761V25.9591L59.0044 27.1914L57.351 28.4401L54.9259 29.623L51.8237 30.7239L48.1073 31.6933L43.9185 32.4983L39.3675 33.1391L34.6118 33.6649L29.7616 34.0592L25.0059 34.3221L20.455 34.4535L16.2662 34.3221L12.5498 33.7799L9.44759 32.5476L7.0225 30.3624L5.36903 27.0107L8.47124 21.638L12.2821 16.7418L16.7071 12.6999L21.5888 9.82466L26.8169 8.3788L32.1867 8.41165L36.1236 12.4699L39.9344 16.4132L43.5248 20.0607L46.753 23.4946L49.556 26.9614L51.8237 30.7239L53.4929 34.93L54.5164 39.6291L54.8629 44.7224L54.5164 50.0787L53.4929 55.5335" id="Vector_6" stroke="#231f20" stroke-linecap="round" stroke-width="0.5"/>
<path d="M53.4928 55.5332L49.4615 56.5519L44.9263 57.4063L39.9816 58.0799L34.8165 58.6221L29.5569 59.0328L24.3917 59.3614L19.4628 59.6079L14.9118 59.6572L10.8805 59.3779L7.5106 58.4413L4.88081 56.4697L3.57377 51.8035L3.13284 46.7102L3.57377 41.3539L1.68409 38.15L0.73925 33.4674L2.17225 27.9962L4.53435 22.6235V17.7437L5.36897 13.2254L8.47119 9.49575L12.2821 6.71904L16.707 5.15817L21.5887 4.96101L26.8168 6.11112L32.1867 8.41135L37.7297 10.8923L43.1153 13.8005L48.1545 16.7743L52.7212 19.6825L56.658 22.6728L59.839 25.9588L62.2011 29.7542L63.6341 34.1575L62.6893 35.5705L63.1617 40.5981L61.2405 42.0604L60.7996 47.466L58.0438 48.8461L54.5164 50.0784L50.2961 51.1463L45.5247 52.0171L40.3595 52.7072L34.9424 53.233L29.4309 53.6602L24.0138 54.0052L18.8487 54.2845L14.0772 54.4652L9.85696 54.3338L6.32955 53.5944L3.57377 51.8035L1.68409 48.5996L0.73925 43.9335L0.251086 38.8401L0.73925 33.4674V27.8976L2.17225 22.6728L4.53435 17.7437L7.71532 13.3897L11.6522 9.90651L16.2189 7.52413L21.258 6.47259L26.6436 6.81763L28.5963 7.37625L32.1867 8.41135L34.533 6.47259L36.8164 6.16042L38.958 7.40912L40.9894 8.9207L41.3831 9.16715L43.5247 10.7937L45.3199 12.2396L46.249 12.9625L47.9655 14.2277L48.1545 14.3755L50.863 16.4293L51.9653 17.333L52.5322 17.8423L53.2723 18.4667L55.9022 20.5204L56.658 21.5719L57.0832 22.0156L59.839 24.7758L60.2327 25.3838L61.9649 28.1276L62.2011 28.5055L62.4845 29.3434L63.6341 32.8431V34.1575L64.1223 39.1523L63.6341 44.6071L63.4294 45.4615L62.3743 49.6676L62.2011 50.3413L61.8074 51.2942L60.7523 53.8738L59.839 56.059L59.0044 57.3077L58.6422 57.8992L55.9022 62.4996L55.3038 63.1897L53.5401 65.2106L52.0913 66.8536L50.863 67.8394L50.0284 68.4145L48.5167 69.4825L46.7215 70.7311L45.3199 71.5198L43.5247 72.2099L41.3831 72.8013L39.3202 73.2285L38.9423 73.2943L36.8164 73.6886L35.0212 73.8529L33.1473 73.8365L32.4229 73.7707H30.7852L28.0451 73.5243L25.4153 72.9985L23.4784 71.6677L20.3604 71.0105L18.0928 68.3652L16.2661 64.4384L14.9118 59.6572L14.0772 54.4652L13.7938 49.1583L14.0772 43.9992L14.9118 39.0701L16.2661 34.3218L18.0928 29.6392L20.3604 24.8744L22.9902 19.9947L25.9035 15.2956L28.99 11.2538L32.1867 8.41135L37.5723 9.74221L38.5171 10.153L42.7846 11.9931L43.6665 12.4861L47.6663 14.7041L48.1545 15.0163L52.0913 17.563L52.7212 18.6474L53.1621 18.976L56.658 21.5719V22.6728L55.9022 23.79L54.4376 24.9073L52.3118 25.9753L49.556 26.9611L46.2805 27.8319L42.5642 28.5712L38.5486 29.1627L34.3283 29.6228L30.045 29.9349L25.8248 30.0992L21.8092 30.0335L18.0928 29.6392L14.8174 28.7848L12.0616 27.2568L9.93569 24.8909L8.47119 21.6377L7.71532 17.6451L11.6522 13.3733L16.2189 10.1201V7.52413L16.707 5.15817L17.6519 3.17012L19.0534 1.67497L20.8486 0.705592L24.439 1.98715L28.2498 4.71456L32.1867 8.41135L36.7534 12.1739L41.1626 15.8871L45.3199 19.3539L49.0678 22.6399L52.3118 25.9753L54.9258 29.6228L56.8627 33.7467L58.0438 38.3801L58.4532 43.457L58.0438 48.8461L56.8627 54.3502L53.4928 55.5332ZM53.4928 55.5332L51.8236 60.8401L48.1072 61.7931L43.9184 62.5982L39.3675 63.2554L34.6118 63.7812L29.7616 64.1591L25.0059 64.4384L20.4549 64.5698L16.2661 64.4384L12.5497 63.8962L9.44753 62.6639L7.5106 58.4413L6.32955 53.5944L5.92013 48.4189L3.13284 46.7102L1.22741 43.5392L0.251086 38.8401V33.1881L0.73925 27.8976L1.68409 22.6071L3.08561 17.678L5.36897 13.2254L7.02244 9.87365L9.93569 6.47259L13.5103 4.15594L15.3055 2.31575L19.0534 1.67497L23.2107 2.64435L27.6199 5.04316L32.1867 8.41135L36.7534 8.44422L36.9109 8.50994L40.0446 9.51218L41.1626 9.85722L42.1232 10.9745L42.7846 11.9931L43.1153 12.9461V13.8005L42.7846 14.5891L42.1232 15.2792L41.1626 15.8871L39.9344 16.4129L38.4699 16.8072L36.8164 17.1029L35.0212 17.2508H33.1473L31.2261 17.0701L29.3521 16.7086L27.557 16.1171L25.9035 15.2956L24.439 14.2441L23.2107 12.9461L22.2501 11.4674L21.5887 9.82436L21.258 8.13205V6.47259L21.5887 4.96101L22.2501 3.66303L23.2107 2.64435L24.439 1.98715L25.9035 1.65854L28.99 4.53383L32.1867 8.41135L36.1235 7.77058L36.7534 8.44422L37.2258 9.11786L37.5723 9.74221L37.7297 10.3501V10.8923L37.5723 11.3852L37.2258 11.8124L36.7534 12.1739L36.1235 12.4696L35.3834 12.6668L34.533 12.7818H33.6354L32.6748 12.6996L31.6985 12.5025L30.7537 12.1903L29.8403 11.7795L28.99 11.2538L28.2498 10.6294L27.6199 9.93937L27.1475 9.16715L26.8168 8.3785L26.6436 7.57342V6.81763L26.8168 6.11112L27.1475 5.51964L27.6199 5.04316L28.2498 4.71456L28.99 4.53383H29.8403L32.1867 8.41135L35.3834 12.6668L38.4699 16.8072L41.3831 20.6519L44.0129 24.2337L46.2805 27.8319L48.1072 31.693L49.4615 35.9648L50.2961 40.6967L50.5796 45.7901L50.2961 51.1463L49.4615 56.5519L48.1072 61.7931L46.2805 66.5414L42.5642 67.2808L38.5486 67.8723L34.3283 68.3323L30.045 68.6609L25.8248 68.8088L21.8092 68.7431L18.0928 68.3652L14.8174 67.4944L12.5497 63.8962L10.8805 59.3779L9.85696 54.3338L9.51051 49.0925L9.85696 43.8678L10.8805 38.7744L12.5497 33.7796L14.8174 28.7848L17.6204 23.7407L20.8486 18.7788L24.439 14.2441L28.2498 10.6294L32.1867 8.41135L37.2258 9.11786L37.7297 9.29859L41.4304 10.7116L42.1232 10.9745L43.1153 11.5167L46.7215 13.5376L47.3356 13.9648L49.0993 15.197L50.863 16.4293L51.9653 17.333L52.9574 18.1216L53.4298 18.5159L55.9022 20.5204" id="Vector_7" stroke="#231f20" stroke-linecap="round" stroke-width="0.5"/>
<path d="M17.6205 1.1163L20.8487 0.705543L22.9904 0.261925L25.9036 1.65849L27.5571 1.70778L29.3523 2.10211L31.2262 2.80861L31.6986 4.96096L32.1868 8.41131L32.675 12.6996L33.1474 17.2508L33.5883 21.6212L33.982 25.6959L34.3285 29.6227L34.6119 33.6646L34.8166 38.0186L34.9426 42.7669L34.9741 47.8931L34.9426 53.2329L34.8166 58.622L34.6119 63.7811L34.3285 68.3323L33.982 71.8319L33.5883 73.7871" id="Vector_8" stroke="#231f20" stroke-linecap="round" stroke-width="0.5"/>
<path d="M61.2406 42.0596L58.4534 43.4562L54.863 44.7213L50.5797 45.7893L45.7295 46.6765L40.4857 47.3501L34.9741 47.8923L29.3995 48.3031L23.888 48.6645L18.6441 48.9603L13.7939 49.1574L9.51066 49.0917L5.92028 48.4181" id="Vector_9" stroke="#231f20" stroke-linecap="round" stroke-width="0.5"/>
<path d="M17.6206 69.8758L15.3057 68.1835L15.2113 68.1013L13.9987 67.2798L12.0618 65.9818L9.93591 63.6159L9.82566 63.5009L8.83359 62.4329L7.02265 60.4613" id="Vector_10" stroke="#231f20" stroke-linecap="round" stroke-width="0.5"/>
<path d="M16.2192 10.1206L16.7074 12.7001L17.6523 15.0825L19.0538 17.1363L20.8489 18.7793L22.9906 19.9951L25.4157 20.8495L28.0455 21.3589L30.7855 21.6053L33.5885 21.6217L36.3286 21.4574L38.9584 21.1288L41.3835 20.6524L43.5251 20.0609L45.3203 19.3544L46.7218 18.5657L47.6667 17.7113L48.1548 16.7748V15.7726L47.6667 14.7046L46.7218 13.5381L45.3203 12.2401L42.2496 10.4821L41.5567 10.0877L41.163 9.85771L39.9347 8.67473L39.0844 8.47757L36.2813 7.82036L36.1239 7.77107L35.3837 7.11386L34.5334 6.47308L33.6358 5.8816L32.6752 5.37225L31.6989 4.9615L30.754 4.66576L29.8407 4.53432L27.5573 1.70832L27.0691 1.41258L25.4157 0.36104" id="Vector_11" stroke="#231f20" stroke-linecap="round" stroke-width="0.5"/>
<path d="M25.4152 72.9992L22.9901 72.1613L20.3603 71.0112L17.6203 69.8775L16.8486 69.2367L14.8172 67.4951L12.0615 65.9835L11.778 65.6221L9.4474 62.6646L7.02231 60.463L4.88067 56.4704L3.08547 53.1844L1.68396 48.6004L1.22728 43.5399L1.68396 38.1507L3.08547 32.5809L2.17212 27.9969V22.6735L3.08547 17.6787L4.88067 14.0641L5.21136 13.4068L5.40032 13.0454L7.02231 9.87435" id="Vector_12" stroke="#231f20" stroke-linecap="round" stroke-width="0.5"/>
<path d="M62.6891 35.571L60.7994 37.0168L58.0436 38.3806L54.5162 39.6293L50.2959 40.6972L45.5245 41.5516L40.3593 42.2417L34.9422 42.7674L29.4307 43.1946L24.0136 43.5561L18.8485 43.8354L14.077 43.9997L9.85676 43.8683L6.32935 43.1289L3.57357 41.3544" id="Vector_13" stroke="#231f20" stroke-linecap="round" stroke-width="0.5"/>
<path d="M28.0454 73.5244L26.8486 71.98L25.825 68.8089L25.0062 64.4385L24.392 59.3616L24.0141 54.0053L23.8881 48.6655L24.0141 43.5557L24.392 38.7745L25.0062 34.3219L25.825 30.0994L26.8486 25.8439L28.0454 21.3585L29.3524 16.7087L30.7539 12.1904L32.1869 8.41148L33.6357 5.88123L35.0215 4.91185" id="Vector_14" stroke="#231f20" stroke-linecap="round" stroke-width="0.5"/>
<path d="M30.785 73.7702L30.3913 72.0122L30.0449 68.6604L29.7614 64.1585L29.5567 59.0323L29.4307 53.6596L29.3992 48.3034L29.4307 43.1936L29.5567 38.4288L29.7614 34.0584L30.0449 29.9344L30.3913 25.8761L30.785 21.6043L31.2259 17.0696L31.6983 12.5019L32.1865 8.41082L32.6747 5.37123L33.1471 3.77751" id="Vector_15" stroke="#231f20" stroke-linecap="round" stroke-width="0.5"/>
<path d="M63.6343 44.6056L62.6895 46.035L61.288 51.687L59.4928 53.0507L57.3511 58.5384L54.926 59.7378L52.312 64.6833L49.5562 65.6691L46.7532 69.6288L44.0132 70.3682L41.3833 72.7998L38.9425 73.2928L38.4701 73.4078L36.8166 73.6871" id="Vector_16" stroke="#231f20" stroke-linecap="round" stroke-width="0.5"/>
<path d="M62.2013 50.341L61.2879 51.6883L61.0517 52.2798L59.0046 57.3074L57.3511 58.5397L54.4379 63.6166L52.312 64.6846L49.068 68.7757L46.7532 69.6301L46.4382 69.8765L43.5249 72.2096" id="Vector_17" stroke="#231f20" stroke-linecap="round" stroke-width="0.5"/>
<path d="M62.2012 28.5055V29.7542L61.2878 31.085L59.4926 32.4487L56.8628 33.7467L53.4929 34.9297L49.4616 35.9648L44.9263 36.8027L39.9817 37.4928L34.8166 38.0186L29.5569 38.4293L24.3918 38.7743L19.4629 39.0044L14.9119 39.0701L10.8806 38.7743L7.51068 37.8378L4.88088 35.8662L3.08568 32.5801L5.36905 27.0103L4.53443 22.6234L7.7154 17.6451V13.3897L8.47126 9.49571L9.93577 6.47254L12.0617 4.46806L13.9671 3.20294L15.3056 2.3157L17.6205 1.1163L20.3605 0.541241L22.9903 0.261925L25.4154 0.360502L28.0452 1.03415L29.3522 2.10211L30.6593 4.51735L30.7537 4.66522L32.1867 8.41131L37.7298 10.3501L37.8873 10.4158L43.1154 12.9461L43.3989 13.1104L48.1545 15.772L52.7213 18.6473V19.6824L52.0914 20.7175L50.8631 21.7034L49.0679 22.6399L46.753 23.4942L44.013 24.2336L40.895 24.8744L37.5251 25.3673L33.9819 25.6959L30.3916 25.8766L26.8484 25.8438L23.4785 25.5316L20.3605 24.8744L17.6205 23.7407L15.3056 22.0484L13.5104 19.6989L12.2821 16.7414L11.6522 13.3732V9.90646L12.2821 6.719L13.5104 4.15589L17.652 3.17007L22.2502 3.66298L27.1476 5.51959L32.1867 8.41131L32.2497 8.54276L34.5331 12.7817L36.8165 17.1029L38.9581 21.1283L40.895 24.8744L42.5642 28.5712L43.9185 32.498L44.9263 36.8027L45.5247 41.5511L45.7294 46.6773L45.5247 52.0171L44.9263 57.4062L43.9185 62.5981L42.5642 67.2808L40.895 71.0104L37.5251 71.5033L33.9819 71.8319L30.3916 72.0126L26.8484 71.9798L23.4785 71.6676L21.8093 68.7431L20.455 64.5698L19.4629 59.6078L18.8488 54.2845L18.644 48.9611L18.8488 43.8348L19.4629 39.0044L20.455 34.4532L21.8093 30.0335L23.4785 25.5316L25.4154 20.849L27.557 16.1171L29.8404 11.7795L32.1867 8.41131L35.3835 7.11333L38.4699 7.42549L39.9344 8.6742L40.3596 8.92065L42.8634 10.3994L43.5248 10.7937L45.0838 12.026L45.4775 12.3381L46.2491 12.9625L47.6506 14.0633L49.0994 15.197L50.8631 16.4293L52.0914 17.5629L53.2724 18.4666" id="Vector_18" stroke="#231f20" stroke-linecap="round" stroke-width="0.5"/>
<path d="M28.0451 1.03327L28.9899 1.44402L30.7851 2.21625L31.226 2.80773L33.1472 3.77712L35.0212 4.91079L36.8164 6.1595L38.4698 7.42462L38.9422 7.70393L40.9894 8.91977L41.3831 9.16622" id="Vector_19" stroke="#231f20" stroke-linecap="round" stroke-width="0.5"/>
<path d="M30.7853 2.21795L31.1475 2.4151L33.1631 3.54879L33.5883 3.77882L35.1788 4.81392L36.3283 5.5697L37.1157 6.1119L38.9581 7.40989" id="Vector_20" stroke="#231f20" stroke-linecap="round" stroke-width="0.5"/>
</g>
</svg>

<svg xmlns="http://www.w3.org/2000/svg" fill="none" overflow="visible" preserveAspectRatio="none" style="display:block" viewBox="0 0 64 74">
  <g stroke="#231f20" stroke-linecap="round" stroke-width=".5">
    <path d="m59.839 56.058-.661 1.101-.378.64-.016.034-2.126 3.549-.756 1.117-1.464 1.117-.363.444-3.212 3.779-1.795.936-.488.362-3.04 2.218-.22.164M3.574 41.353l1.307-5.487 2.141-5.504 2.913-5.472 3.575-5.192 4.142-4.617 4.598-3.614 4.897-2.3 5.04-.756 5.385 2.974 5.212 3.204 4.882 3.121 4.425 3.007 3.811 3.072 3.102 3.401 2.284 3.894 1.401 4.486"/>
    <path d="m16.22 10.12 5.038-1.988 5.386-.558 1.968.296 3.575.542.063.131 1.386 4.24 1.386 4.468 1.307 4.206 1.196 3.91 1.024 3.796.819 3.976.614 4.354.378 4.749.126 5.11-.126 5.356-.378 5.372-.614 5.176-.82 4.617-1.023 3.63-1.196 2.104-2.74.18-1.166-.016"/>
    <path d="m5.92 48.418.41-5.29 1.18-5.29 1.938-5.291 2.614-5.29 3.244-5.21 3.748-4.912 4.157-4.19 4.41-3.006 4.566-1.528 5.039 3.4 4.897 3.468 4.599 3.286 4.141 3.138 3.575 3.204 2.913 3.532 2.142 4.01 1.307 4.567.44 5.044"/>
    <path d="m63.634 32.844.11 1.15.378 3.828v1.33l-.96 1.447-.473 5.438-1.89 1.43-1.306 5.586-2.63 1.298-1.937 5.389-3.102 1.1-2.268 4.831-3.275.87-2.268 3.83-3.118.64-1.937 2.267-2.63.329-1.307.246"/>
    <path d="m55.902 20.52.756.756.976 1.02 1.37 1.429.835 1.051v1.183l-.835 1.232-1.653 1.25-2.425 1.182-3.102 1.1-3.717.97-4.188.805-4.551.641-4.756.526-4.85.394-4.756.263-4.551.131-4.189-.13-3.716-.543-3.102-1.232-2.426-2.186-1.653-3.351 3.102-5.373 3.811-4.896 4.425-4.042 4.882-2.875 5.228-1.446 5.37.033 3.937 4.058 3.81 3.943 3.59 3.648 3.229 3.434 2.803 3.466 2.268 3.763 1.669 4.206 1.023 4.7.347 5.092-.347 5.357-1.023 5.454"/>
    <path d="m53.493 55.533-4.032 1.019-4.535.854-4.944.674-5.166.542-5.26.41-5.164.33-4.93.246-4.55.05-4.032-.28-3.37-.937-2.63-1.971-1.306-4.666-.441-5.094.44-5.356-1.889-3.204-.945-4.683 1.433-5.47 2.362-5.373v-4.88l.835-4.519 3.102-3.73 3.811-2.776 4.425-1.56 4.882-.198 5.228 1.15 5.37 2.3 5.543 2.481 5.385 2.909 5.04 2.973 4.566 2.909 3.937 2.99 3.181 3.286 2.362 3.795 1.433 4.403-.945 1.414.473 5.027-1.922 1.462-.44 5.406-2.756 1.38-3.528 1.232-4.22 1.068-4.771.871-5.166.69-5.417.526-5.511.427-5.417.345-5.165.28-4.772.18-4.22-.131-3.527-.74-2.756-1.79-1.89-3.204-.945-4.666-.488-5.094.488-5.373v-5.57l1.433-5.224 2.362-4.93 3.181-4.353 3.937-3.483 4.567-2.383 5.039-1.051 5.386.345 1.952.558 3.59 1.035 2.347-1.938 2.283-.313 2.142 1.25 2.031 1.51.394.247 2.142 1.627 1.795 1.446.929.723 1.716 1.265.19.148 2.708 2.053 1.102.904.567.51.74.624 2.63 2.053.756 1.052.425.444 2.756 2.76.394.608 1.732 2.744.236.378.283.837 1.15 3.5v1.314l.488 4.995-.488 5.455-.205.855-1.055 4.206-.173.673-.394.953-1.055 2.58-.913 2.185-.835 1.249-.362.591-2.74 4.6-.598.69-1.764 2.022-1.449 1.643-1.228.985-.835.576-1.511 1.067-1.796 1.25-1.401.788-1.795.69-2.142.591-2.063.427-.378.066-2.126.395-1.795.164-1.874-.016-.724-.066h-1.638l-2.74-.247-2.63-.525-1.937-1.331-3.118-.658-2.267-2.645-1.827-3.927-1.354-4.78-.835-5.193-.283-5.307.283-5.159.835-4.929 1.354-4.748 1.827-4.683 2.267-4.765 2.63-4.88 2.914-4.698 3.086-4.042 3.197-2.843 5.385 1.331.945.411 4.268 1.84.882.493 4 2.218.487.312 3.937 2.547.63 1.084.441.329 3.496 2.596v1.1l-.756 1.118-1.464 1.117-2.126 1.068-2.756.986-3.275.87-3.717.74-4.015.592-4.22.46-4.284.312-4.22.164-4.016-.066-3.716-.394-3.276-.854-2.755-1.528-2.126-2.366-1.465-3.253-.756-3.993 3.937-4.272 4.567-3.253V7.524l.488-2.366.945-1.988 1.401-1.495 1.796-.97 3.59 1.282 3.81 2.728 3.938 3.696 4.566 3.763 4.41 3.713 4.157 3.467 3.748 3.286 3.244 3.335 2.614 3.648 1.937 4.124 1.18 4.633.41 5.077-.41 5.39-1.18 5.503zm0 0-1.67 5.307-3.716.953-4.189.805-4.55.657-4.756.526-4.85.378-4.756.28-4.551.13-4.189-.13-3.716-.543-3.102-1.232L7.51 58.44 6.33 53.594l-.41-5.175-2.787-1.709-1.906-3.17-.976-4.7v-5.652l.488-5.29.945-5.29 1.402-4.93 2.283-4.453 1.653-3.351 2.914-3.401 3.574-2.317 1.796-1.84 3.747-.641 4.158.97 4.409 2.398 4.567 3.368 4.566.033.158.066 3.134 1.002 1.118.345.96 1.118.662 1.018.33.953v.854l-.33.79-.662.69-.96.607-1.229.526-1.464.394-1.654.296-1.795.148h-1.874l-1.92-.18-1.875-.362-1.795-.592-1.653-.821-1.465-1.052-1.228-1.298-.96-1.479-.662-1.643-.331-1.692v-1.66l.33-1.511.662-1.298.96-1.019 1.229-.657 1.465-.328 3.086 2.875 3.197 3.877 3.937-.64.63.673.472.674.346.624.158.608v.542l-.158.493-.346.427-.473.362-.63.296-.74.197-.85.115h-.898l-.96-.082-.976-.197-.945-.313-.914-.41-.85-.526-.74-.625-.63-.69-.473-.772-.33-.788-.173-.806v-.755l.173-.707.33-.591.473-.477.63-.328.74-.181h.85l2.347 3.877 3.196 4.256 3.087 4.14 2.913 3.845 2.63 3.582 2.268 3.598 1.826 3.861 1.355 4.272.834 4.732.284 5.093-.284 5.356-.834 5.406-1.355 5.241-1.826 4.748-3.717.74-4.015.591-4.22.46-4.284.329-4.22.148-4.016-.066-3.716-.378-3.276-.87-2.267-3.599-1.67-4.518-1.023-5.044-.346-5.242.346-5.224 1.024-5.094 1.669-4.994 2.267-4.995 2.803-5.044 3.229-4.962 3.59-4.535 3.81-3.615 3.938-2.218 5.039.707.504.18 3.7 1.414.693.263.992.542 3.606 2.02.615.428 1.763 1.232 1.764 1.232 1.102.904.992.789.473.394 2.472 2.004"/>
    <path d="m17.62 1.116 3.229-.41L22.99.262l2.914 1.396 1.653.05 1.795.394 1.874.707.473 2.152.488 3.45.488 4.289.472 4.55.441 4.371.394 4.075.346 3.927.284 4.042.205 4.354.126 4.748.031 5.126-.031 5.34-.126 5.389-.205 5.16-.284 4.55-.346 3.5-.394 1.955"/>
    <path d="m61.24 42.06-2.787 1.396-3.59 1.265-4.283 1.068-4.85.887-5.244.674-5.512.542-5.574.411-5.512.361-5.244.296-4.85.197-4.283-.065-3.59-.674M17.62 69.876l-2.314-1.693-.095-.082L14 67.28l-1.937-1.298-2.126-2.366-.11-.115-.992-1.068-1.811-1.972M16.22 10.12l.487 2.58.945 2.383 1.402 2.053 1.795 1.643 2.142 1.216 2.425.854 2.63.51 2.74.246 2.803.017 2.74-.165 2.63-.328 2.424-.477 2.142-.591 1.795-.707 1.402-.788.945-.855.488-.936v-1.002l-.488-1.068-.945-1.167-1.402-1.298-3.07-1.758-.693-.394-.394-.23-1.228-1.183-.85-.197-2.804-.658-.157-.049-.74-.657-.85-.64-.898-.592-.96-.51-.977-.41-.945-.296-.913-.132-2.284-2.826-.488-.295L25.416.36"/>
    <path d="m25.415 73-2.425-.839-2.63-1.15-2.74-1.133-.771-.641-2.032-1.742-2.755-1.511-.284-.362-2.33-2.957-2.426-2.202-2.141-3.993-1.796-3.286L1.684 48.6l-.457-5.06.457-5.39 1.401-5.57-.913-4.583v-5.323l.913-4.995 1.796-3.615.33-.657.19-.362 1.621-3.17"/>
    <path d="m62.69 35.571-1.89 1.446-2.756 1.364-3.528 1.248-4.22 1.068-4.771.855-5.166.69-5.417.525-5.511.428-5.417.361-5.165.28-4.772.164-4.22-.132-3.528-.74-2.755-1.774"/>
    <path d="M28.045 73.524 26.85 71.98l-1.024-3.171-.819-4.37-.614-5.077-.378-5.357-.126-5.34.126-5.11.378-4.78.614-4.453.819-4.223 1.024-4.255 1.196-4.486 1.307-4.65 1.402-4.518 1.433-3.779 1.449-2.53 1.386-.97"/>
    <path d="m30.785 73.77-.394-1.758-.346-3.352-.284-4.501-.204-5.127-.126-5.372-.032-5.357.032-5.11.126-4.764.204-4.37.284-4.125.346-4.058.394-4.272.44-4.534.473-4.568.489-4.091.488-3.04.472-1.593M63.634 44.606l-.944 1.429-1.402 5.652-1.795 1.364-2.142 5.487-2.425 1.2-2.614 4.945-2.756.986-2.803 3.96-2.74.74-2.63 2.43-2.44.494-.473.115-1.653.28"/>
    <path d="m62.201 50.341-.913 1.347-.236.592-2.047 5.027-1.654 1.233-2.913 5.077-2.126 1.068-3.244 4.09-2.315.855-.315.246-2.913 2.334M62.201 28.506v1.248l-.913 1.331-1.795 1.364-2.63 1.298-3.37 1.183-4.031 1.035-4.536.838-4.944.69-5.165.526-5.26.41-5.165.345-4.93.23-4.55.066-4.031-.296-3.37-.936-2.63-1.972-1.795-3.286 2.283-5.57-.835-4.387 3.181-4.978V13.39l.756-3.894 1.465-3.023 2.126-2.005 1.905-1.265 1.339-.887 2.315-1.2 2.74-.575 2.63-.28 2.424.1 2.63.673 1.307 1.068 1.307 2.415.095.148 1.433 3.746 5.543 1.94.157.065 5.228 2.53.284.164 4.755 2.662 4.567 2.875v1.035l-.63 1.036-1.228.985-1.795.937-2.315.854-2.74.74-3.118.64-3.37.493-3.543.329-3.59.18-3.544-.032-3.37-.312-3.118-.658-2.74-1.133-2.314-1.693-1.796-2.35-1.228-2.957-.63-3.368V9.906l.63-3.187 1.228-2.563 4.142-.986 4.598.493 4.898 1.857 5.039 2.891.063.132 2.283 4.239 2.283 4.32 2.142 4.026 1.937 3.746 1.67 3.697 1.354 3.927 1.007 4.305.599 4.748.204 5.126-.204 5.34-.599 5.39-1.008 5.191-1.354 4.683-1.669 3.73-3.37.492-3.543.329-3.59.18-3.544-.032-3.37-.312-1.669-2.925-1.354-4.173-.992-4.962-.614-5.323-.205-5.324.205-5.126.614-4.83.992-4.552 1.354-4.42 1.67-4.501 1.936-4.683 2.142-4.732 2.283-4.337 2.347-3.369 3.197-1.298 3.086.312 1.464 1.25.426.246 2.503 1.478.662.395 1.559 1.232.393.312.772.625 1.402 1.1 1.448 1.134 1.764 1.232 1.228 1.134 1.181.904M28.045 1.033l.945.411 1.795.772.441.592 1.921.97 1.874 1.133 1.795 1.249 1.654 1.265.472.279L40.99 8.92l.394.246"/>
    <path d="m30.785 2.218.363.197 2.015 1.134.425.23 1.59 1.035 1.15.756.788.542 1.842 1.298"/>
  </g>
</svg>
